X:247
T:Un Canadien Errant
Z:Jack Campin, http://www.campin.me.uk/
F:Jack Campin's Nine-Note Tunebook
% last edit 03-02-2013
M:3/4
L:1/4
Q:1/4=120
K:F
FFF|C2F|A3|AGA|B2A|G3 |
FFF|C2F|A3|AGA|B2A|G3 |
GGG|A2B|c3|GAB|A2G|F3 |
FFF|d2c|c3|GAB|A2G|F3|]

